X:17
T:Hornpipe. RDO.17
M:2/4
L:1/16
Q:1/4=90
S:Robert D. Owen MS,Indiana,1826.
R:.Hornpipe
O:Indiana,USA
A:New Harmony
Z:vmp.Chris Partington
K:F
z2|F3GA2B2|defd dAGF|GFGA BABc|d2g2g2z2|!
F3GA2B2|defd cAGA|F2f2 cdcB|A2F2F2:|!
|:z2|f2f2g2c2|f2f2g2c2|g2g2f2f2|g2g2g2z2|!
f2f2e2e2|fdfd cAGA|F2f2 (cd)cB|A2F2F2:|

